X:1
T: Master John Romily
C:William Marshall
R:Reel
Q: 232
K:F
M:4/4
L:1/8
|:B|Ac fc A2 FA|ga ba gG GB|Ac fc A2 FA|EG cB AF FB|
Ac fc A2 FA|ga ba gG GB|Ac fc A2 FA|EG cB AF Fe|
fc Af cf af|dg ba gG Ge|fc Af cf Af|EG cB AF FA|
fc Af cf Af|ga ba gG Gg|bg af ag fe|fd cB AF F:|
